public/images/home/phone.svg

<svg width="19" height="18" viewBox="0 0 19 18" fill="none" xmlns="http://www.w3.org/2000/svg">
<path d="M5.94322 3.67266C6.33572 4.06352 6.33572 4.69896 5.94322 5.08982L4.90012 6.12859L11.921 13.1202L12.97 12.0755C13.3602 11.687 13.9911 11.687 14.3813 12.0755L17.3927 15.0745C17.7737 15.4539 17.7842 16.0654 17.383 16.4234C16.6816 17.0492 15.5661 17.9006 14.607 17.9886C12.5537 18.177 8.82047 16.0126 5.40801 12.6144C1.99563 9.21616 -0.177893 5.49851 0.0112818 3.45374C0.0999774 2.49592 0.959545 1.38148 1.58847 0.683339C1.9462 0.286241 2.55328 0.296866 2.93199 0.674001L5.94322 3.67266Z" fill="#FF6B00"/>
<path d="M10.0459 1.66632L10.0459 0.479492C14.2078 0.479492 17.5938 3.85144 17.5938 7.99609L16.402 7.99609C16.402 4.50586 13.5507 1.66632 10.0459 1.66632Z" fill="#FF6B00"/>
<path d="M10.0459 4.43542L10.0459 3.24853C12.6745 3.24854 14.813 5.37829 14.813 7.99609L13.6213 7.99609C13.6213 6.03274 12.0174 4.43542 10.0459 4.43542Z" fill="#FF6B00"/>
</svg>

<svg xmlns="http://www.w3.org/2000/svg" width="19" height="18" fill="#ff6b00" xmlns:v="https://vecta.io/nano"><path d="M5.943 3.673a1 1 0 0 1 0 1.417L4.9 6.129l7.021 6.992 1.049-1.045a1 1 0 0 1 1.411 0l3.011 2.999c.381.379.391.991-.01 1.349-.701.626-1.817 1.477-2.776 1.565-2.053.188-5.787-1.976-9.199-5.374S-.178 5.499.011 3.454C.1 2.496.96 1.381 1.588.683c.358-.397.965-.386 1.344-.009l3.011 2.999zm4.103-2.007V.479c4.162 0 7.548 3.372 7.548 7.517h-1.192c0-3.49-2.851-6.33-6.356-6.33zm0 2.769V3.249c2.629 0 4.767 2.13 4.767 4.748h-1.192c0-1.963-1.604-3.561-3.575-3.561z"/></svg>
